SVG_Azure_Grouped/Management/Datadog.svg

<?xml version="1.0" encoding="UTF-8" standalone="no"?>
<!-- Generated by Microsoft Visio, SVG Export Datadog.svg Page-1 -->

<svg
   xmlns:dc="http://purl.org/dc/elements/1.1/"
   xmlns:cc="http://creativecommons.org/ns#"
   xmlns:rdf="http://www.w3.org/1999/02/22-rdf-syntax-ns#"
   xmlns:svg="http://www.w3.org/2000/svg"
   xmlns="http://www.w3.org/2000/svg"
   xmlns:sodipodi="http://sodipodi.sourceforge.net/DTD/sodipodi-0.dtd"
   xmlns:inkscape="http://www.inkscape.org/namespaces/inkscape"
   width="0.74805367in"
   height="0.7848928in"
   viewBox="0 0 53.859833 56.512422"
   xml:space="preserve"
   class="st2"
   version="1.1"
   id="svg19"
   sodipodi:docname="Datadog.svg"
   style="font-size:12px;overflow:visible;color-interpolation-filters:sRGB;fill:none;fill-rule:evenodd;stroke-linecap:square;stroke-miterlimit:3"
   inkscape:version="0.92.5 (2060ec1f9f, 2020-04-08)"><metadata
   id="metadata25"><rdf:RDF><cc:Work
       rdf:about=""><dc:format>image/svg+xml</dc:format><dc:type
         rdf:resource="http://purl.org/dc/dcmitype/StillImage" /></cc:Work></rdf:RDF></metadata><defs
   id="defs23" /><sodipodi:namedview
   pagecolor="#ffffff"
   bordercolor="#666666"
   borderopacity="1"
   objecttolerance="10"
   gridtolerance="10"
   guidetolerance="10"
   inkscape:pageopacity="0"
   inkscape:pageshadow="2"
   inkscape:window-width="640"
   inkscape:window-height="480"
   id="namedview21"
   showgrid="false"
   inkscape:zoom="1.8365233"
   inkscape:cx="35.905404"
   inkscape:cy="18.663584"
   inkscape:window-x="0"
   inkscape:window-y="0"
   inkscape:window-maximized="0"
   inkscape:current-layer="svg19" />
	<style
   type="text/css"
   id="style2">
	<![CDATA[
		.st1 {fill:#632ca6;stroke:none;stroke-linecap:butt;stroke-width:0.764474}
		.st2 {fill:none;fill-rule:evenodd;font-size:12px;overflow:visible;stroke-linecap:square;stroke-miterlimit:3}
	]]>
	</style>

	<g
   id="g17"
   transform="translate(-5.3859292,-5.6743)">
		<title
   id="title4">Page-1</title>
		<g
   id="group12377-1"
   transform="translate(5.38583,-34.0157)">
			<title
   id="title6">Datadog.12377</title>
			<g
   id="group12378-2">
				<title
   id="title8">Sheet.12378</title>
				<g
   id="shape12379-3">
					<title
   id="title10">Sheet.12379</title>
					<path
   d="m 45.11,79.81 -4.79,-3.1 -4,6.55 -4.66,-1.33 -4.09,6.13 0.21,1.93 22.27,-4.02 -1.29,-13.65 z m -20.77,-5.88 3.57,-0.48 c 0.58,0.25 0.98,0.35 1.68,0.52 1.08,0.28 2.33,0.54 4.18,-0.37 0.43,-0.21 1.33,-1.02 1.69,-1.47 L 50.1,69.52 51.6,87.25 26.51,91.68 Z M 51.54,67.54 50.09,67.81 47.32,39.69 0,45.06 5.83,91.44 11.37,90.65 C 10.93,90.03 10.24,89.28 9.06,88.33 7.43,87 8.01,84.74 8.97,83.32 10.24,80.91 16.8,77.85 16.43,74 16.3,72.6 16.07,70.78 14.74,69.53 c -0.05,0.52 0.04,1.02 0.04,1.02 0,0 -0.54,-0.68 -0.81,-1.61 C 13.7,68.58 13.49,68.47 13.2,68 c -0.2,0.54 -0.18,1.18 -0.18,1.18 0,0 -0.44,-1.03 -0.51,-1.9 -0.27,0.39 -0.33,1.13 -0.33,1.13 0,0 -0.58,-1.62 -0.45,-2.5 -0.26,-0.76 -1.05,-2.27 -0.82,-5.71 1.44,0.99 4.62,0.76 5.86,-1.03 0.41,-0.59 0.69,-2.21 -0.21,-5.4 -0.57,-2.05 -2,-5.09 -2.56,-6.24 l -0.07,0.04 c 0.3,0.93 0.9,2.88 1.13,3.83 0.71,2.87 0.9,3.87 0.57,5.19 -0.28,1.15 -0.96,1.9 -2.66,2.74 C 11.26,60.18 8.99,58.12 8.85,58.01 7.19,56.72 5.91,54.6 5.77,53.58 5.62,52.45 6.43,51.78 6.84,50.86 6.25,51.02 5.6,51.31 5.6,51.31 c 0,0 0.78,-0.78 1.74,-1.47 0.39,-0.25 0.62,-0.42 1.04,-0.76 -0.6,-0.01 -1.09,0.01 -1.09,0.01 0,0 1.01,-0.54 2.05,-0.92 -0.76,-0.04 -1.5,-0.01 -1.5,-0.01 0,0 2.26,-0.99 4.03,-1.71 1.23,-0.49 2.42,-0.35 3.09,0.6 0.88,1.25 1.81,1.93 3.77,2.35 1.21,-0.53 1.57,-0.8 3.09,-1.2 1.33,-1.44 2.37,-1.62 2.37,-1.62 0,0 -0.51,0.46 -0.65,1.2 0.75,-0.59 1.58,-1.07 1.58,-1.07 0,0 -0.32,0.39 -0.62,1 l 0.07,0.1 c 0.88,-0.52 1.92,-0.92 1.92,-0.92 0,0 -0.3,0.36 -0.65,0.84 0.67,-0.01 2.02,0.03 2.54,0.08 3.09,0.07 3.73,-3.23 4.91,-3.64 1.49,-0.52 2.15,-0.84 4.68,1.6 2.17,2.09 3.86,5.83 3.02,6.67 -0.7,0.69 -2.1,-0.27 -3.64,-2.16 -0.81,-1 -1.43,-2.18 -1.72,-3.68 -0.24,-1.26 -1.19,-2 -1.19,-2 0,0 0.55,1.2 0.55,2.26 0,0.58 0.07,2.74 1.02,3.96 -0.09,0.18 -0.14,0.88 -0.24,1.01 -1.1,-1.3 -3.47,-2.24 -3.85,-2.51 1.3,1.05 4.3,3.46 5.46,5.76 1.09,2.19 0.44,4.19 0.99,4.71 0.16,0.15 2.35,2.82 2.77,4.16 0.73,2.34 0.04,4.8 -0.92,6.32 l -2.68,0.41 c -0.39,-0.1 -0.66,-0.16 -1.01,-0.36 0.19,-0.33 0.58,-1.17 0.58,-1.35 l -0.15,-0.26 c -0.83,1.16 -2.23,2.29 -3.39,2.94 -1.52,0.84 -3.28,0.71 -4.42,0.36 -3.24,-0.98 -6.3,-3.12 -7.04,-3.69 0,0 -0.02,0.45 0.12,0.56 0.81,0.9 2.69,2.53 4.49,3.67 l -3.85,0.42 1.82,13.91 c -0.81,0.11 -0.93,0.17 -1.82,0.29 -0.78,-2.7 -2.27,-4.46 -3.9,-5.49 -1.43,-0.91 -3.42,-1.11 -5.32,-0.74 l -0.12,0.14 c 1.32,-0.14 2.88,0.05 4.48,1.04 1.57,0.98 2.84,3.49 3.3,5.01 0.6,1.93 1.01,4 -0.59,6.19 -1.15,1.56 -4.48,2.43 -7.18,0.56 0.72,1.14 1.7,2.06 3.01,2.24 1.94,0.26 3.79,-0.07 5.06,-1.35 1.08,-1.09 1.66,-3.38 1.5,-5.79 l 1.72,-0.24 0.62,4.32 28.41,-3.35 z M 34.26,55.81 c -0.08,0.18 -0.21,0.29 -0.02,0.87 l 0.01,0.03 0.03,0.08 0.08,0.17 c 0.34,0.68 0.71,1.32 1.33,1.64 0.16,-0.03 0.32,-0.04 0.49,-0.05 0.58,-0.03 0.95,0.06 1.18,0.19 0.02,-0.12 0.03,-0.28 0.02,-0.53 -0.05,-0.85 0.17,-2.31 -1.51,-3.08 -0.63,-0.29 -1.52,-0.2 -1.82,0.16 0.06,0.01 0.11,0.02 0.14,0.03 0.45,0.16 0.15,0.31 0.07,0.49 z m 4.7,7.99 c -0.22,-0.12 -1.25,-0.07 -1.97,0.01 -1.38,0.16 -2.87,0.63 -3.19,0.88 -0.59,0.45 -0.32,1.23 0.11,1.55 1.23,0.9 2.31,1.5 3.44,1.36 0.7,-0.09 1.31,-1.18 1.75,-2.16 0.3,-0.68 0.3,-1.41 -0.14,-1.64 z M 26.77,56.87 c 0.38,-0.36 -1.94,-0.84 -3.74,0.37 -1.33,0.89 -1.37,2.79 -0.1,3.87 0.13,0.11 0.23,0.19 0.33,0.25 0.37,-0.17 0.79,-0.35 1.28,-0.5 0.83,-0.26 1.51,-0.4 2.07,-0.47 0.27,-0.3 0.59,-0.82 0.51,-1.76 -0.11,-1.27 -1.1,-1.07 -0.35,-1.76 z"
   class="st1"
   id="path12"
   inkscape:connector-curvature="0"
   style="fill:#632ca6;stroke:none;stroke-width:0.76447397;stroke-linecap:butt" />
				</g>
			</g>
		</g>
	</g>
</svg>

<?xml version="1.0" encoding="UTF-8" standalone="no"?>
<!DOCTYPE svg PUBLIC "-//W3C//DTD SVG 1.1//EN" "http://www.w3.org/Graphics/SVG/1.1/DTD/svg11.dtd">
<!-- Generated by Microsoft Visio, SVG Export Datadog.svg Page-1 -->
<svg xmlns="http://www.w3.org/2000/svg" xmlns:xlink="http://www.w3.org/1999/xlink" xmlns:ev="http://www.w3.org/2001/xml-events"
		width="0.897638in" height="1.33858in" viewBox="0 0 64.6299 96.378" xml:space="preserve" color-interpolation-filters="sRGB"
		class="st2">
	<style type="text/css">
	<![CDATA[
		.st1 {fill:#632ca6;stroke:none;stroke-linecap:butt;stroke-width:0.764474}
		.st2 {fill:none;fill-rule:evenodd;font-size:12px;overflow:visible;stroke-linecap:square;stroke-miterlimit:3}
	]]>
	</style>

	<g>
		<title>Page-1</title>
		<g id="group12095-1" transform="translate(5.38583,-34.0157)">
			<title>Datadog.12095</title>
			<g id="group12096-2">
				<title>Sheet.12096</title>
				<g id="shape12097-3">
					<title>Sheet.12097</title>
					<path d="M45.11 79.81 L40.32 76.71 L36.32 83.26 L31.66 81.93 L27.57 88.06 L27.78 89.99 L50.05 85.97 L48.76 72.32
								 L45.11 79.81 ZM24.34 73.93 L27.91 73.45 C28.49 73.7 28.89 73.8 29.59 73.97 C30.67 74.25 31.92 74.51
								 33.77 73.6 C34.2 73.39 35.1 72.58 35.46 72.13 L50.1 69.52 L51.6 87.25 L26.51 91.68 L24.34 73.93
								 ZM51.54 67.54 L50.09 67.81 L47.32 39.69 L0 45.06 L5.83 91.44 L11.37 90.65 C10.93 90.03 10.24 89.28
								 9.06 88.33 C7.43 87 8.01 84.74 8.97 83.32 C10.24 80.91 16.8 77.85 16.43 74 C16.3 72.6 16.07 70.78
								 14.74 69.53 C14.69 70.05 14.78 70.55 14.78 70.55 C14.78 70.55 14.24 69.87 13.97 68.94 C13.7 68.58
								 13.49 68.47 13.2 68 C13 68.54 13.02 69.18 13.02 69.18 C13.02 69.18 12.58 68.15 12.51 67.28 C12.24
								 67.67 12.18 68.41 12.18 68.41 C12.18 68.41 11.6 66.79 11.73 65.91 C11.47 65.15 10.68 63.64 10.91
								 60.2 C12.35 61.19 15.53 60.96 16.77 59.17 C17.18 58.58 17.46 56.96 16.56 53.77 C15.99 51.72 14.56
								 48.68 14 47.53 L13.93 47.57 C14.23 48.5 14.83 50.45 15.06 51.4 C15.77 54.27 15.96 55.27 15.63 56.59
								 C15.35 57.74 14.67 58.49 12.97 59.33 C11.26 60.18 8.99 58.12 8.85 58.01 C7.19 56.72 5.91 54.6 5.77
								 53.58 C5.62 52.45 6.43 51.78 6.84 50.86 C6.25 51.02 5.6 51.31 5.6 51.31 C5.6 51.31 6.38 50.53 7.34
								 49.84 C7.73 49.59 7.96 49.42 8.38 49.08 C7.78 49.07 7.29 49.09 7.29 49.09 C7.29 49.09 8.3 48.55
								 9.34 48.17 C8.58 48.13 7.84 48.16 7.84 48.16 C7.84 48.16 10.1 47.17 11.87 46.45 C13.1 45.96 14.29
								 46.1 14.96 47.05 C15.84 48.3 16.77 48.98 18.73 49.4 C19.94 48.87 20.3 48.6 21.82 48.2 C23.15 46.76
								 24.19 46.58 24.19 46.58 C24.19 46.58 23.68 47.04 23.54 47.78 C24.29 47.19 25.12 46.71 25.12 46.71
								 C25.12 46.71 24.8 47.1 24.5 47.71 L24.57 47.81 C25.45 47.29 26.49 46.89 26.49 46.89 C26.49 46.89
								 26.19 47.25 25.84 47.73 C26.51 47.72 27.86 47.76 28.38 47.81 C31.47 47.88 32.11 44.58 33.29 44.17
								 C34.78 43.65 35.44 43.33 37.97 45.77 C40.14 47.86 41.83 51.6 40.99 52.44 C40.29 53.13 38.89 52.17
								 37.35 50.28 C36.54 49.28 35.92 48.1 35.63 46.6 C35.39 45.34 34.44 44.6 34.44 44.6 C34.44 44.6 34.99
								 45.8 34.99 46.86 C34.99 47.44 35.06 49.6 36.01 50.82 C35.92 51 35.87 51.7 35.77 51.83 C34.67 50.53
								 32.3 49.59 31.92 49.32 C33.22 50.37 36.22 52.78 37.38 55.08 C38.47 57.27 37.82 59.27 38.37 59.79
								 C38.53 59.94 40.72 62.61 41.14 63.95 C41.87 66.29 41.18 68.75 40.22 70.27 L37.54 70.68 C37.15 70.58
								 36.88 70.52 36.53 70.32 C36.72 69.99 37.11 69.15 37.11 68.97 L36.96 68.71 C36.13 69.87 34.73 71
								 33.57 71.65 C32.05 72.49 30.29 72.36 29.15 72.01 C25.91 71.03 22.85 68.89 22.11 68.32 C22.11 68.32
								 22.09 68.77 22.23 68.88 C23.04 69.78 24.92 71.41 26.72 72.55 L22.87 72.97 L24.69 86.88 C23.88 86.99
								 23.76 87.05 22.87 87.17 C22.09 84.47 20.6 82.71 18.97 81.68 C17.54 80.77 15.55 80.57 13.65 80.94
								 L13.53 81.08 C14.85 80.94 16.41 81.13 18.01 82.12 C19.58 83.1 20.85 85.61 21.31 87.13 C21.91 89.06
								 22.32 91.13 20.72 93.32 C19.57 94.88 16.24 95.75 13.54 93.88 C14.26 95.02 15.24 95.94 16.55 96.12
								 C18.49 96.38 20.34 96.05 21.61 94.77 C22.69 93.68 23.27 91.39 23.11 88.98 L24.83 88.74 L25.45 93.06
								 L53.86 89.71 L51.54 67.54 ZM34.26 55.81 C34.18 55.99 34.05 56.1 34.24 56.68 L34.25 56.71 L34.28
								 56.79 L34.36 56.96 C34.7 57.64 35.07 58.28 35.69 58.6 C35.85 58.57 36.01 58.56 36.18 58.55 C36.76
								 58.52 37.13 58.61 37.36 58.74 C37.38 58.62 37.39 58.46 37.38 58.21 C37.33 57.36 37.55 55.9 35.87
								 55.13 C35.24 54.84 34.35 54.93 34.05 55.29 C34.11 55.3 34.16 55.31 34.19 55.32 C34.64 55.48 34.34
								 55.63 34.26 55.81 ZM38.96 63.8 C38.74 63.68 37.71 63.73 36.99 63.81 C35.61 63.97 34.12 64.44 33.8
								 64.69 C33.21 65.14 33.48 65.92 33.91 66.24 C35.14 67.14 36.22 67.74 37.35 67.6 C38.05 67.51 38.66
								 66.42 39.1 65.44 C39.4 64.76 39.4 64.03 38.96 63.8 ZM26.77 56.87 C27.15 56.51 24.83 56.03 23.03
								 57.24 C21.7 58.13 21.66 60.03 22.93 61.11 C23.06 61.22 23.16 61.3 23.26 61.36 C23.63 61.19 24.05
								 61.01 24.54 60.86 C25.37 60.6 26.05 60.46 26.61 60.39 C26.88 60.09 27.2 59.57 27.12 58.63 C27.01
								 57.36 26.02 57.56 26.77 56.87 Z" class="st1"/>
				</g>
			</g>
		</g>
	</g>
</svg>
